X:1
T:Perfidissima Clori
T:Perfidissima Clori
T:Giovanni Ghizzolo
C:Giovanni Ghizzolo
%%score [ 1 2 ] { ( 3 5 ) | 4 }
L:1/8
Q:1/4=100
M:3/4
K:C
V:1 treble-8 nm="Tenor 1"
V:2 treble-8 nm="Tenor 2"
V:3 treble nm="MusicXML Part"
V:5 treble 
V:4 bass 
V:1
 z2 dc B2 | AG A4 | G4- GB | cd ec d2 | d2 BB d2- | d6 | c>B B4 | B3 G GA | B>A Bc>Bc | d2 d2 cB | %10
w: Per- fi- dis-|si- ma Clo-|ri _ non|ti ram- ment 'il gior-|no, quan- d'il dol-||ce sog- gior|no en lie- ti|bal- li di Nin- f'e Pas-|to- ri mi _|
 dc B4 | A6 :|[M:4/4] z4 e4- | e2 B2 c2 c>B | d3 ^c d4 | z2 FF F4- | F2 EE E4 | D8 | z2 B2 d4- | %19
w: di _ ces-|ti.|Sil-|* vio dol' c'a- mor|mi- o _|in te vi-|* ve'il cor mi-|o|et hor|
 d2 A4 _Bc | A4 A2 d2- | d2 cc c3 _B | _BB B4 =B2- | B8- | B2 c2 B4 | A8 | %26
w: _ hai sor- te|ri- a nie-|* ghi con- fort' al|a- pra pe- *||* na mi-|a.|
[M:3/4] c3 B/B/ B/B/A/B/ | c6 | d3 ^c/c/ c/c/B/c/ | d6 | B2 c2 d2 | d3 c BA | c3 d Bc | A3 B c2 | %34
w: O _ _ _ _ _ _|_|O _ _ _ _ _ _|_|O quant' e|ver ch'in gio- va-|nil _ _ _|_ _ _|
 dc BA cB | AG A4 | G6 | d2 B2 ^c2 | d3 B ^c2 | d2 e2 c2 | B6 | A6 | z2 d2 B2 | B2 c3 B | %44
w: bel _ _ _ _ _|_ _ ta|de|v'e po- ca|fed' e gran-|d'e- le- al-|ta-|de,|v'e po-|ca fed' e|
 c2 d2 eB | ^c d4 c | d6 |] %47
w: gran- d'e le- al|ta- * *|de.|
V:2
 DE ^F2 GE |"^#""^#" F G4 F | G4- GG | AB cA B2 | B2 GG B2- | B6 | A>G G4 | G3 E EF | G>^F GA>GA | %9
w: Per- fi- dis- si- ma|Clo- * *|ri _ non|ti ram- ment' il gor-|no, quand'- il dol-||ce sog- gior-|no en lie- ti|bal- li di Nin- f'e Pas-|
 B2 B2 AG | BA ^G4 | A6 :|[M:4/4] z8 | z8 | z8 | z8 | z8 | z8 | z8 | z8 | z8 | z8 | z8 | z8 | z8 | %25
w: to- ri mi _|di _ ces-|ti.||||||||||||||
 z8 |[M:3/4] A3 G/G/ G/G/^F/G/ | A6 | B3 A/A/ A/A/^G/A/ | B6 | z6 | E2 F2 G2 | A3 G FE | F3 G EG | %34
w: |O _ _ _ _ _ _|_|O _ _ _ _ _ _|_||O quant' e|ver ch'in gio- va-|nil _ _ _|
 D3 E F2 | G2 G2 ^F2 | G6 | z2 G2 E2 | ^F2 G3 E | ^F2 G2 AF | ^G A4 G | A6 | A2 ^F2 G2 | %43
w: _ _ _|bel- ta _|de-|v'e po-|ca fed' e|gran- d'e le- al-|ta _ _|de,|v'e po- ca|
"^#" A3 F G2 | E2 ^F2 G2 | E>F E4 | D6 |] %47
w: fed' e gran-|d'e le- al|ta _ _|de.|
V:3
 [Bd]2 [Bd][Ac] [GB]2 | A4 A2 | [GB]4 [GB]2 | [FA]2 [CG]2 [DG]2 | [DG]2 [GB]2 [GBd]2 | [GBd]6 | %6
 [ce]>[Bd] [GBd]4 | [Bd]2 [Gc]4 | [GB]>[^FA] [GB][Ac]>[GB][Fc] | [GB]2 [GB]2 AB | [EB]6 | [EAc]6 :| %12
[M:4/4] [EGc]8 | [CG]4 [CA]4 | [DB]8 | z8 | [Ac]8 | [FA]4 AG AB/c/ | [GBd]4 [GB]2 [Bd]2 | d4 e4 | %20
 [^Fd]4 [FA]4 | [GB]2 [Ac][Bd] [Ge]3 [Gd] | _B6 =B2 | B8 | [EB]8 | [EAc]8 |[M:3/4] [CEA]6 | %27
 [CEA]6 | [DGB]6 | [DGB]6 | [Bd]2 [Ac]2 [GB]2 | [EG]4 [DG]2 | [CA]4 [DB][Ec] | [Fd]4 [Gc]2 | %34
 d3 c/B/ A2 | A6 | [DGB]6 | [Bd]4 [A^c]2 | [Ad]2 [GB]2 [EA]2 | [^FA]2 [Gc]2 [Dc]2 | [EB]6 | %41
 [CEA]6 | [^FA]4 [DB]2 | [DB]2 [^Fc]3 [Gd] | [Ge]2 [Gd]2 [Gc][GB] | [EA]4 [EA]2 | [D^FA]6 |] %47
V:4
 D,4 G,,2 | D,4 D,2 | G,,4 G,2 | F,2 E,2 G,2 | G,,6 | G,,6 | G,,6 | G,,2 C,4 | G,,6 | G,,4 A,,2 | %10
 E,6 | A,,6 :|[M:4/4] C,6 D,2 | E,4 A,,4 | G,,8 | z8 | A,,8 | D,8 | G,,8 | D,4 ^C,4 | D,8 | G,,8 | %22
 G,4 F,4 | E,4 ^D,4 | E,8 | A,,8 |[M:3/4] A,,6 | A,,6 | G,,6 | G,,6 | G,,2 A,,2 B,,2 | C,4 B,,2 | %32
 A,,4 G,,2 | D,4 C,2 | B,,3 C, D,2 | E,2 C,2 D,2 | G,,6 | G,,4 A,,2 | D,2 G,,2 A,,2 | %39
 D,2 C,B,, A,,2 | E,4 E,2 | A,,6 | D,4 G,2 | F,2 D,2 E,2 | C,2 B,,A,, G,,2 | A,,4 A,,2 | D,6 |] %47
V:5
 x6 | ^F G4 F | x6 | x6 | x6 | x6 | x6 | x6 | x6 | x4 E2 | x6 | x6 :|[M:4/4] x8 | x8 | x8 | x8 | %16
 x8 | x4 E2 F2 | x8 | A6 z2 | x8 | x8 | D4 D4 | G4 ^F4 | G4 ^G4 | x8 |[M:3/4] x6 | x6 | x6 | x6 | %30
 x6 | x6 | x6 | x6 | G4 ^F2 | G2 [EG]2 [D^F]2 | x6 | x6 | x6 | x6 | x6 | x6 | x6 | x6 | x6 | x6 | %46
 x6 |] %47

